icons/point-line-16.svg

<svg xmlns="http://www.w3.org/2000/svg" viewBox="0 0 16 16"><path d="M16 6v1h-3V6zM6 6H3v1h3zm3 7h1v-3H9zm1-13H9v3h1zM7 4h5v5H7.635L3 13.636V16H0v-3h2.364L7 8.364zM2 14H1v1h1zm6-6h3V5H8z"/><path fill="none" d="M0 0h16v16H0z"/></svg>

<svg id="icons" xmlns="http://www.w3.org/2000/svg" viewBox="0 0 16 16"><defs><style>.cls-1{fill:none;}</style></defs><path d="M16,6V7H13V6ZM6,6H3V7H6Zm3.00006,7h1V10h-1Zm1-13h-1V3h1ZM7,4h5V9H7.63525L3,13.63562V16H0V13H2.364L7,8.36365ZM2,14H1v1H2ZM8,8h3V5H8Z"/><rect class="cls-1" width="16" height="16"/></svg>
